!!!COM: Palestrina, Giovanni Perluigi da
!!!OPR: L'homme arme (1582)
!!!OTL: Gloria
**kern	**kern	**kern	**kern
*Ibass	*Itenor	*Icalto	*Icant
!Bassus	!Tenor	!Altus	!Cantus
*clefF4	*clefGv2	*clefG2	*clefG2
*k[]	*k[]	*k[]	*k[]
*D:dor	*D:dor	*D:dor	*D:dor
*M4/2	*M4/2	*M4/2	*M4/2
=1	=1	=1	=1
0r	1r	1A	0r
.	1D	2A	.
.	.	[2d	.
=2	=2	=2	=2
0r	2D	2d]	1r
.	1G	2d	.
.	.	2.B	1d
.	2G	.	.
.	.	8A	.
.	.	8G	.
=3	=3	=3	=3
0r	2F	2A	2d
.	4E	2c	1g
.	4D	.	.
.	1E	4B	.
.	.	4A	.
.	.	4B	2g
.	.	4c	.
=4	=4	=4	=4
0r	2D	2.d	2f
.	1d	.	2f
.	.	4d	.
.	.	[1A	2e
.	2c#	.	2e
=5	=5	=5	=5
1D	2d	1A]	0d
.	2A	.	.
2D	2A	2r	.
[2G	[2B-	2d	.
=6	=6	=6	=6
2G]	4B-]	2d	0r
.	4A	.	.
2G	4B-	2.e	.
.	4G	.	.
2F	2A	.	.
.	.	4d	.
4E	2B-	[2d	.
4D	.	.	.
=7	=7	=7	=7
1E	1G	4d]	1r
.	.	8c	.
.	.	8B	.
.	.	2c#	.
1D	2A	2d	1a
.	2d	2f	.
=8	=8	=8	=8
1r	2c#	2e	2a
.	2d	2f#	2a
1G	2B	1g	[1d
.	2B	.	.
=9	=9	=9	=9
2F#	2A	1r	1d]
2.G	2.B	.	.
.	.	2r	1r
4G	4B	.	.
2E	2c#	[2g	.
=10	=10	=10	=10
1D	2d	2g]	1a
.	1d	2.f	.
1r	.	.	1a
.	.	8e	.
.	.	8d	.
.	2c#	2e	.
=11	=11	=11	=11
2r	2d	2f#	2a
2D	2d	2f#	2a
2G	1B	1g	1d
2G	.	.	.
=12	=12	=12	=12
2.F	2r	1c	1a
.	2A	.	.
4E	.	.	.
4D	2d	2f	[1a
4E	.	.	.
4F	2d	2f	.
4G	.	.	.
=13	=13	=13	=13
2.A	2.c	2e	2a]
.	.	2.e	2a
8G	8B	.	.
8F	8A	.	.
2E	2B	.	2g
.	.	4d	.
2F	[2A	4c	2f
.	.	4B	.
=14	=14	=14	=14
1C	2A]	2.c	1e
.	1G	.	.
.	.	4B	.
1D	.	1A	1d
.	2F#	.	.
=15	=15	=15	=15
2r	2G	2B	2r
1C	1c	1e	1g
2GG	2B	2d	2g
=16	=16	=16	=16
2GG	2B	2d	2g
2.D	2.d	2.f#	2.a
4D	4d	4f#	4a
2D	2d	2f#	2a
=17	=17	=17	=17
1G	1d	1g	1b
1G	2d	2g	2b
.	2G	2g	2b
=18	=18	=18	=18
0r	2A	2e	2cc
.	2F	2f	2a
.	1c	2e	2g
.	.	[2e	[2cc
=19	=19	=19	=19
1r	0r	4e]	4cc]
.	.	4d	4b
.	.	2c	1a
2.E	.	1B	.
.	.	.	2g#
4E	.	.	.
=20	=20	=20	=20
2F	2.A	1A	1a
2D	.	.	.
.	4A	.	.
2C	2c	1r	1r
2F	2A	.	.
=21	=21	=21	=21
4E	2G	0r	0r
4D	.	.	.
4C	2.c	.	.
4BB	.	.	.
2C	.	.	.
.	4B	.	.
2D	[2A	.	.
=22	=22	=22	=22
1E	4A]	1r	1b
.	8G	.	.
.	8F#	.	.
.	2G#	.	.
2r	1A	1e	2cc
2A	.	.	[2a
=23	=23	=23	=23
2F	0r	2f	2a]
2G	.	2d	2g
4A	.	2c	2e
4G	.	.	.
4F	.	[2f	[2a
4E	.	.	.
=24	=24	=24	=24
2D	1r	2f]	4a]
.	.	.	4g
2D	.	1d	4f
.	.	.	8e
.	.	.	8d
2AA	2r	.	2e
2AA	[2A	2c#	2e
=25	=25	=25	=25
2D	2A]	2d	2d
2.D	2F#	2.d	2.a
.	1F#	.	.
4D	.	4d	4a
2D	.	2d	2a
=26	=26	=26	=26
1GG	1G	1d	1b
2.C	2E	1e	2cc
.	[2A	.	[2cc
4D	.	.	.
=27	=27	=27	=27
1E	2A]	2.e	2cc]
.	2G	.	2b
.	.	4e	.
1r	2F	2f	2a
.	2F	2f	2a
=28	=28	=28	=28
0C	1c	0e	1g
.	[1G	.	1cc
=29	=29	=29	=29
0D	1G]	0d	1b-
.	1F	.	1a
=30	=30	=30	=30
0BB-	1.B-	0d	1g
.	.	.	[1f
.	2A	.	.
=31	=31	=31	=31
0C	0G	0c	2f]
.	.	.	4e
.	.	.	4d
.	.	.	1e
=32	=32	=32	=32
2r	1F	0A	0f
2.D	.	.	.
.	2r	.	.
4D	.	.	.
2D	[2A	.	.
=33	=33	=33	=33
1.G	4A]	0r	0r
.	4A	.	.
.	2A	.	.
.	[1c	.	.
2E	.	.	.
=34	=34	=34	=34
2F	2c]	0r	1r
2G	2B	.	.
4A	2c	.	2r
4G	.	.	.
4F	2d	.	[2a
4E	.	.	.
=35	=35	=35	=35
2D	1B	2r	4a]
.	.	.	4a
2E	.	2.e	2g#
1F	2A	.	2.a
.	.	4e	.
.	[2A	2d	.
.	.	.	4b
=36	=36	=36	=36
1E	4A]	2.e	2cc
.	4A	.	.
.	2G#	.	2b
.	.	4d	.
2r	2.A	4c	1a
.	.	4B	.
[2A	.	[2c	.
.	4B	.	.
=37	=37	=37	=37
4A]	2c	4c]	0e
4A	.	4A	.
2G#	2.B	2B	.
1A	.	2.c	.
.	4A	.	.
.	[2A	.	.
.	.	8B	.
.	.	8A	.
=38	=38	=38	=38
1E	2A]	1B	2r
.	2G#	.	2.e
2r	1A	4c	.
.	.	4B	4e
[2D	.	4A	2f
.	.	4G	.
=39	=39	=39	=39
4D]	2r	2F	2d
4D	.	.	.
2C#	2.A	2E	2e
2D	.	2r	2f
.	4A	.	.
2E	2G#	[2e	2e
=40	=40	=40	=40
1F	2.A	4e]	2r
.	.	4e	.
.	.	2d	2.a
.	4B	.	.
1E	2c	2.e	.
.	.	.	4a
.	[2B	.	2g#
.	.	4d	.
=41	=41	=41	=41
1F	4B]	2c	2.a
.	4A	.	.
.	1A	2d	.
.	.	.	4b
2.E	.	[1e	2cc
.	2G	.	[2b
4D	.	.	.
=42	=42	=42	=42
2C	1c	0e]	4b]
.	.	.	4a
2AA	.	.	1a
1E	1B	.	.
.	.	.	2g#
=43	=43	=43	=43
0AA	0A	0e	0a
=44	=44	=44	=44
0D	1r	0f	0a
.	1d	.	.
=45	=45	=45	=45
1D	1d	1f	1a
1AA	1c#	[1e	2.a
.	.	.	8g
.	.	.	8f
=46	=46	=46	=46
1A	1c#	2e]	2e
.	.	2A	2f#
2G	2d	2B	2g
2F#	2d	2A	[2a
=47	=47	=47	=47
1G	0d	1B	4a]
.	.	.	4g
.	.	.	2.g
1D	.	2A	.
.	.	.	4f
.	.	[2d	2f
=48	=48	=48	=48
2r	1A	2d]	1e
2A	.	2c#	.
2F#	2r	4d	1d
.	.	4c	.
[2G	[2d	4B	.
.	.	4A	.
=49	=49	=49	=49
2G]	2d]	2B	0r
2F	2d	2A	.
1E	2c#	1e	.
.	2c#	.	.
=50	=50	=50	=50
1.D	[0d	2.f	1a
.	.	4e	.
.	.	4d	2f
.	.	4c	.
2GG	.	2B	[2g
=51	=51	=51	=51
1D	1d]	2A	2g]
.	.	1d	2f
1r	1A	.	1e
.	.	2c#	.
=52	=52	=52	=52
1D	2r	2d	2d
.	2d	2f#	2a
1G	2d	1g	1b
.	2d	.	.
=53	=53	=53	=53
2E	1e	2g	2b
2C	.	2g	2cc
2G	2d	2g	2b
2A	2c	2e	2a
=54	=54	=54	=54
1E	1B	1e	1g#
2F	1A	2c	2a
[2D	.	[2d	[2f
=55	=55	=55	=55
2D]	2r	2d]	2f]
2D	1A	2d	2f
2AA	.	1c	1e
[2A	2A	.	.
=56	=56	=56	=56
4A]	1D	2.A	2r
4G	.	.	.
2.F	.	.	2.a
.	.	4B	.
.	[1A	2c	.
4E	.	.	4g
[2D	.	2d	[2f
=57	=57	=57	=57
2D]	2A]	2d	2f]
2C#	2A	2e	2e
1D	2A	4f	2d
.	.	4e	.
.	2A	4d	2f
.	.	4c	.
=58	=58	=58	=58
1GG	2G	1B-	4e
.	.	.	4d
.	2F	.	1d
1AA	1E	1A	.
.	.	.	2c#
=59	=59	=59	=59
2r	0D	1A	4d
.	.	.	4e
2D	.	.	4f
.	.	.	4g
1F	.	2r	1a
.	.	2A	.
=60	=60	=60	=60
2E	0r	1c	0r
2A	.	.	.
2.G	.	2B	.
.	.	2e	.
4G	.	.	.
=61	=61	=61	=61
2G	0r	2.d	0r
2.F	.	.	.
.	.	4d	.
.	.	2d	.
4G	.	.	.
[2A	.	4c	.
.	.	4d	.
=62	=62	=62	=62
2A]	0r	4e	0r
.	.	4c	.
4G	.	1f	.
4F	.	.	.
1E	.	.	.
.	.	2e	.
=63	=63	=63	=63
2F	2r	2f	2r
1D	1d	1f	1a
2D	2d	2f	2a
=64	=64	=64	=64
1F	2c	1f	1a
.	2c	.	.
2.BB-	[1d	1f	1b-
4C	.	.	.
=65	=65	=65	=65
1D	1d]	2.f	2.a
.	.	4e	4g
1D	[1A	[1d	1f
=66	=66	=66	=66
2AA	1A]	2d]	1e
1A	.	2c#	.
.	2r	2r	2.a
2D	[2d	[2f	.
.	.	.	4a
=67	=67	=67	=67
1D	4d]	4f]	2a
.	4d	4f	.
.	2d	2f	2b
1r	1e	1g	2cc
.	.	.	[2b
=68	=68	=68	=68
0r	2d	2f	4b]
.	.	.	4a
.	2c	2e	1a
.	1B	1d	.
.	.	.	2g#
=69	=69	=69	=69
2r	2A	1e	1a
2A	2c	.	.
2G	2B	2r	2r
2F	2A	2d	[2a
=70	=70	=70	=70
2E	2B	1e	2a]
2E	2c#	.	1g
1D	1d	2A	.
.	.	[2d	2f
=71	=71	=71	=71
1r	2r	2d]	2e
.	2A	2c#	2e
1D	2B-	1d	2d
.	2A	.	2a
=72	=72	=72	=72
0D	2r	2r	2b-
.	2A	2d	2a
.	2B-	1d	4f
.	.	.	4g
.	[2A	.	4a
.	.	.	4b
=73	=73	=73	=73
2C	4A]	2e	4cc
.	4G	.	8b
.	.	.	8cc
2BB	1G	2d	2dd
2AA	.	2e	2cc
2AA	2F#	4d	2cc
.	.	4c	.
=74	=74	=74	=74
0GG	0G	2e	0b
.	.	2d	.
.	.	1d	.
=75	=75	=75	=75
1.C	1r	1.e	0cc
.	[1G	.	.
2D	.	2f#	.
=76	=76	=76	=76
1E	1G]	4g	1b
.	.	4f	.
.	.	4e	.
.	.	4d	.
1F	1A	2c	[1a
.	.	2d	.
=77	=77	=77	=77
0E	0B	0e	2a]
.	.	.	4g
.	.	.	4f#
.	.	.	1g#
=78	=78	=78	=78
2D	2d	1f#	1a
2D	2A	.	.
2G	2B	2r	1r
2G	2B	[2d	.
=79	=79	=79	=79
2F	2A	2d]	1r
2E	2G	1g	.
1D	2.A	.	2r
.	.	2f	2d
.	4B	.	.
=80	=80	=80	=80
0r	2c	2e	2g
.	2G	1d	2g
.	[1A	.	2f
.	.	2c#	2e
=81	=81	=81	=81
1D	1A]	2d	2d
.	.	2f	2dd
2.D	2r	2f	2dd
.	2A	2f	2dd
4D	.	.	.
=82	=82	=82	=82
1AA	2.A	1e	4cc
.	.	.	4b
.	.	.	4a
.	4A	.	4g
2r	1D	2r	2f
2D	.	2f	2dd
=83	=83	=83	=83
2.D	2r	2f	2dd
.	2A	2f	2dd
4D	.	.	.
1AA	2.A	1e	4cc
.	.	.	4b
.	.	.	4a
.	4A	.	4g
=84	=84	=84	=84
1r	1D	2r	2f
.	.	2d	2f
2r	[1A	2c	2e
2D	.	2f	[2a
=85	=85	=85	=85
2C#	1A]	2e	4a]
.	.	.	4g
2D	.	2d	2f
2.AA	1A	2.c	1e
4BB	.	4d	.
=86	=86	=86	=86
1C	1G	4e	2.cc
.	.	4f	.
.	.	2.e	.
.	.	.	4b
1D	1F	.	[1a
.	.	4d	.
.	.	[2d	.
=87	=87	=87	=87
1AA	1E	2d]	1a]
.	.	2c#	.
[1D	[1D	[1d	[1f#
=88	=88	=88	=88
1D_	1D_	1d_	1f#_
1D_	1D_	1d_	1f#_
=89	=89	=89	=89
1D]	1D]	1d]	1f#]
==	==	==	==
*-	*-	*-	*-
!!!CDT: 1525/^1526/-1594/2/2
!!!OCY: Italia
!!!AGN: Mass (Paraphrase)
!!!AST: renaissance, vocal
!!!ASW: Popular Song
!!!PWK: Masses, Book 4
!!!RNB: Cadence finals: A
!!!YOR: Le Opere Complete, v. 10, p. 60
!!!YOO: Rome, Italy: Fratelli Scalera
!!!END: 1992//
!!!EED: John Miller
!!!YEC: Copyright 2000, John Miller
!!!YEN: United States of America
!!!YEM: Rights to all derivative electronic formats reserved.
!!!YEM: Refer to licensing agreement for further details.
!!!YEM: This file must be accompanied by the licensing agreement.
!!!YEM: A copy of the licensing agreement may be found at http://www.music-cog.ohio-state.edu/HumdrumDatabases/Palestrina/license.txt
!!!EMD: converted to Humdrum by Bret Aarden
